X:1
T:Amour me donne
T:Noé Faignient
T:Source : La fleur des chansons à 3---Louvain---P.Phalèse---1574. Editor : André Vierendeels (30/08/18) Notes : Original clefs : G2, G2, C3 Original note values have been halved Editorial accidentals above the staff
T:Amour me donne
T:©
T:©
T:©
T:©
C:Noé Faignient
Z:©
%%score [ 1 2 3 ]
L:1/8
Q:1/4=120
M:2/2
K:F
V:1 treble nm="Soprano 1" snm="S 1"
V:2 treble nm="Soprano 2" snm="S 2"
V:3 treble-8 nm="Tenor" snm="T"
V:1
 G4 B2 c2 | d4 G2 g2- | g2 f2 _e4 | d2 d2 c2 c2 | B4 B2 G2- | G2 F2 _E4 | D4 z2 G2 | B2 c2 d4 | %8
w: A- mour me|don- ne pai-|* n'et dou-|leurs, a- mour me|don- ne pai-|* n'et dou-|leurs, a-|mour me don-|
 G2 g4 f2 |"^b" e4 d4- | d4 z4 | z2 g3 g g2 | fdff f2 d2- | d2 c2 d4- | d4 A3 A | A2 G2 z2 d2- | %16
w: ne pai- n'et|dou- leurs,|_|nul- le cho-|se de sia ne me con-|* ten- te,|_ nul- le|cho- se, nul-|
 dd d2 cAcc | d3 c =B2 c2 | A4 G2 B2 | B2 G2 d2 B2 | A2 G2 ^F2 d2 | d2 e2 f2 d2 | c2 B2 A4 | %23
w: * le cho- se de sia ne|me- * * con-|ten- te, à|mon mal ne treu-|ve se- cours, à|mon mal ne treu-|ve se- cours,|
 d4 B4- | B2 c2 d4 | G4 A3 G | F2 B4 A2 | B2 B2 B3 A | GF G4 G2- | G2 ^F2 G2 z G | A2 AA B4 | %31
w: sans nul|_ con- fort|ie me _|_ la- men-|te, ie me _|_ _ la- men-|* * te, vous|es- tes la cau-|
 A2 A2 GG ^F2 | Gddd B2 z f | ff d2 z fff | dBAG ^F2 Gd | cB A2 G4 | z ddd B2 z f | ff d2 z dcB | %38
w: se, ma dou- ce vi-|e, se- cou- rez moy, se-|cou- rez moy, se- cou- rez|moy, ie vous sup- pli- e, ie|vous sup- pli- e,|se- cou- rez moy, se-|cou- rez moy, ie vous sup-|
 A2 GB AG ^F2 | G8 |] %40
w: pli- e, ie vous sup- pli-|e.|
V:2
 z8 | G4 B2 c2 | d4 G2 g2- | g2 f2 _e4 | d2 d2 d2 c2 | A4 B3 G | A2 A2 G4 | z2 g4 f2 | _e6 d2 | %9
w: |A- mour me|con- ne pai-|* n'et dou-|leurs, a- mour me|don- ne pai-|n'et dou- leurs,|pai- n'et|dou- leurs,|
 c2 c4 =B2 | z2 d3 d d2 | cAcc dd c2 | d4 z2 g2- | gg g2 f2 d2 | f6 f2 | ec e2 d2 A2 | AA G2 A4 | %17
w: et dou- leurs,|nul- le cho-|se de- sia ne me con- ten-|te, nul-|* le cho- se de|sia ne|me con- ten- te, ne|me con- ten- te,|
 B4 G2 G2 | ^F4 G2 d2 | d2 e2 f2 d2 | c2 B2 A2 B2 | B2 G2 d2 B2 | A2 G2 ^F2 d2 | B4 G4- | G4 =B4 | %25
w: ne me con-|ten- te, à|mon mal ne treu-|ve se- cours, à|mon mal ne treu-|ve se- cours, sans|nul con-|* fort,|
 z8 | z8 | d8 | _e6 d2 | c4 =B2 z B | c2 cc d4 | c2 z d Bc A2 | G4 z ddd | B2 z f ff d2 | %34
w: ||ie|me la-|men- te, vous|es- tes la cau-|se, ma dou- ce vi-|e, se- cou- rez|moy, se- cou- rez moy,|
 z dcB A2 GB | AG ^F2 Gddd | B2 z f ff d2 | z fff dBAG | ^F2 Gd cB A2 | =B8 |] %40
w: ie vous sup- pli- e, ie|vous sup- pli- e, se- cou- rez|moy, se- cou- rez moy,|se- cou- rez moy, ie vous sup-|pli- e, ie vous sup- pli-|e.|
V:3
 z8 | z8 | z8 | z8 | G4 B2 c2 | d4 G2 g2- | g2 f2 _e4- | e4 d4 | c3 d _e2 B2 | c4 G4 | g3 g g2 fd | %11
w: ||||A- mour me|don- ne pai-|* n'et dou-|* leurs,|pain _ _ n'et|dou- leurs,|nul- le cho- se de-|
 ff g3 f _e2 | d2 d2 f2 g2 | _e4 d4 | z2 d3 d d2 | cAcc d3 c | B4 A4 | z2 G2 g2 c2 | d4 G2 z G | %19
w: sia ne me con- ten-|te, ne me con-|ten- te,|nul- le cho-|se de- sia ne me con-|ten- te,|ne me con-|ten- te, à|
 B2 c2 d3 e | f2 g2 d2 z G | B2 c2 d3 e | f2 g2 d4 | z2 g4 _e2- | e2 c2 G4 | z2 d4 _e2- | %26
w: mon mal ne treu-|ve se- cours, à|mon mal ne treu-|ve se- cours,|sans nul|_ con- fort,|ie me|
 e2 d2 c4 | B2 G2 g3 f | _e3 d c2 B2 | A4 G2 g2 | f2 ff B4 | f2 d2 _ec d2 | G2 z g gg d2 | %33
w: _ la- men-|te, ie me _|_ _ _ la-|men- te, vous|es- tes la cau-|se, ma dou- ce vi-|e, se- cou- rez moy,|
 z BBB fddd | g>dfg d2 GG | cG d2 G2 z g | gg d2 z BBB | fddd g>dfg | d2 GG cG d2 | G8 |] %40
w: se- cou- rez moy, se- cou- rez|moy, ie vous sup- pli- e, ie|vous sup- pli- e, se-|cou- rez moy, se- cou- rez|moy, se- cou- rez moy, ie vous sup-|pli- e, ie vous sup- pli-|e.|

